X:14
T: Das mannstolle Maedchen
N: Q0126A
O: Mitteleuropa, Luxemburg
R: Ballade, Werbung, Betrug
M: 2/4
L: 1/8
K: G
D2 | G3F | G2AB | G2GF | G2
c2 | B2AB | G2B2 | A4 | z2
AB | c3B | ABcA | B3G | A2z2
B2AG | FEDE | F2
G2 | FEDE | F2
